Newaita-dark/apps/32/accessories-character-map.svg

<?xml version="1.0" encoding="UTF-8"?>
<svg xmlns="http://www.w3.org/2000/svg" xmlns:xlink="http://www.w3.org/1999/xlink" width="32px" height="32px" viewBox="0 0 32 32" version="1.1">
<defs>
<linearGradient id="linear0" gradientUnits="userSpaceOnUse" x1="254" y1="233.5" x2="254" y2="254.666672" gradientTransform="matrix(0.062506,0,0,0.062506,-0.00000381506,13.438785)">
<stop offset="0" style="stop-color:rgb(0%,0%,0%);stop-opacity:0.27451;"/>
<stop offset="1" style="stop-color:rgb(0%,0%,0%);stop-opacity:0;"/>
</linearGradient>
<radialGradient id="radial0" gradientUnits="userSpaceOnUse" cx="450.908936" cy="189.579361" fx="450.908936" fy="189.579361" r="21.166656" gradientTransform="matrix(0.00000017417,-0.0781325,-0.140638,-0.000000101539,52.130648,63.595333)">
<stop offset="0" style="stop-color:rgb(0%,0%,0%);stop-opacity:0.313726;"/>
<stop offset="0.222222" style="stop-color:rgb(0%,0%,0%);stop-opacity:0.27451;"/>
<stop offset="1" style="stop-color:rgb(0%,0%,0%);stop-opacity:0;"/>
</radialGradient>
<radialGradient id="radial1" gradientUnits="userSpaceOnUse" cx="450.908936" cy="189.579361" fx="450.908936" fy="189.579361" r="21.166656" gradientTransform="matrix(-0.00000017417,0.0781325,0.140638,0.000000101539,-20.377613,-7.527479)">
<stop offset="0" style="stop-color:rgb(0%,0%,0%);stop-opacity:0.313726;"/>
<stop offset="0.222222" style="stop-color:rgb(0%,0%,0%);stop-opacity:0.27451;"/>
<stop offset="1" style="stop-color:rgb(0%,0%,0%);stop-opacity:0;"/>
</radialGradient>
<radialGradient id="radial2" gradientUnits="userSpaceOnUse" cx="450.908936" cy="189.579361" fx="450.908936" fy="189.579361" r="21.166656" gradientTransform="matrix(-0.00000017417,-0.0781325,0.140638,-0.000000101539,-20.377613,63.595333)">
<stop offset="0" style="stop-color:rgb(0%,0%,0%);stop-opacity:0.313726;"/>
<stop offset="0.222222" style="stop-color:rgb(0%,0%,0%);stop-opacity:0.27451;"/>
<stop offset="1" style="stop-color:rgb(0%,0%,0%);stop-opacity:0;"/>
</radialGradient>
<radialGradient id="radial3" gradientUnits="userSpaceOnUse" cx="450.908936" cy="189.579361" fx="450.908936" fy="189.579361" r="21.166656" gradientTransform="matrix(0.00000017417,0.0781325,-0.140638,0.000000101539,52.130646,-7.527479)">
<stop offset="0" style="stop-color:rgb(0%,0%,0%);stop-opacity:0.313726;"/>
<stop offset="0.222222" style="stop-color:rgb(0%,0%,0%);stop-opacity:0.27451;"/>
<stop offset="1" style="stop-color:rgb(0%,0%,0%);stop-opacity:0;"/>
</radialGradient>
<linearGradient id="linear1" gradientUnits="userSpaceOnUse" x1="285.75" y1="233.5" x2="285.75" y2="-168.666672" gradientTransform="matrix(0.062506,0,0,0.062506,0,13.438783)">
<stop offset="0" style="stop-color:rgb(61.960787%,61.960787%,61.960787%);stop-opacity:1;"/>
<stop offset="1" style="stop-color:rgb(74.117649%,74.117649%,74.117649%);stop-opacity:1;"/>
</linearGradient>
<linearGradient id="linear2" gradientUnits="userSpaceOnUse" x1="254" y1="-147.5" x2="253.999985" y2="212.333328" gradientTransform="matrix(0.062506,0,0,0.062506,0,13.438783)">
<stop offset="0" style="stop-color:rgb(87.843138%,87.843138%,87.843138%);stop-opacity:1;"/>
<stop offset="1" style="stop-color:rgb(93.333334%,93.333334%,93.333334%);stop-opacity:1;"/>
</linearGradient>
<filter id="alpha" filterUnits="objectBoundingBox" x="0%" y="0%" width="100%" height="100%">
  <feColorMatrix type="matrix" in="SourceGraphic" values="0 0 0 0 1 0 0 0 0 1 0 0 0 0 1 0 0 0 1 0"/>
</filter>
<mask id="mask0">
  <g filter="url(#alpha)">
<rect x="0" y="0" width="32" height="32" style="fill:rgb(0%,0%,0%);fill-opacity:0.99;stroke:none;"/>
  </g>
</mask>
<linearGradient id="linear3" gradientUnits="userSpaceOnUse" x1="960" y1="1695.118164" x2="960.000061" y2="135.118118" gradientTransform="matrix(0.016538,0,0,0.016538,0,0)">
<stop offset="0" style="stop-color:rgb(25.882354%,25.882354%,25.882354%);stop-opacity:1;"/>
<stop offset="1" style="stop-color:rgb(38.039216%,38.039216%,38.039216%);stop-opacity:1;"/>
</linearGradient>
<clipPath id="clip1">
  <rect x="0" y="0" width="32" height="32"/>
</clipPath>
<g id="surface5" clip-path="url(#clip1)">
<path style=" stroke:none;fill-rule:nonzero;fill:url(#linear3);" d="M 14.574219 6.777344 C 14.351562 6.78125 14.136719 6.898438 14.015625 7.105469 L 13.683594 7.679688 C 13.503906 7.996094 13.609375 8.402344 13.925781 8.582031 L 16.792969 10.238281 C 17.109375 10.421875 17.511719 10.3125 17.695312 9.996094 L 18.027344 9.421875 C 18.210938 9.105469 18.101562 8.703125 17.785156 8.519531 L 14.917969 6.863281 C 14.8125 6.800781 14.691406 6.773438 14.574219 6.777344 Z M 11.90625 11.496094 C 11.175781 11.496094 10.585938 12.085938 10.585938 12.820312 L 10.585938 14.140625 L 12.570312 14.140625 C 12.570312 13.777344 12.863281 13.480469 13.230469 13.480469 L 18.523438 13.480469 C 18.890625 13.480469 19.183594 13.777344 19.183594 14.140625 L 19.183594 16.789062 L 11.90625 16.789062 C 11.175781 16.789062 10.585938 17.378906 10.585938 18.109375 L 10.585938 22.742188 C 10.585938 23.476562 11.175781 24.066406 11.90625 24.066406 L 21.167969 24.066406 L 21.167969 12.820312 C 21.167969 12.085938 20.578125 11.496094 19.84375 11.496094 Z M 13.230469 18.773438 L 19.183594 18.773438 L 19.183594 22.082031 L 13.230469 22.082031 C 12.863281 22.082031 12.570312 21.785156 12.570312 21.417969 L 12.570312 19.433594 C 12.570312 19.066406 12.863281 18.773438 13.230469 18.773438 Z M 13.230469 18.773438 "/>
</g>
<mask id="mask1">
  <g filter="url(#alpha)">
<rect x="0" y="0" width="32" height="32" style="fill:rgb(0%,0%,0%);fill-opacity:0.99;stroke:none;"/>
  </g>
</mask>
<clipPath id="clip2">
  <rect x="0" y="0" width="32" height="32"/>
</clipPath>
<g id="surface8" clip-path="url(#clip2)">
<path style=" stroke:none;fill-rule:nonzero;fill:rgb(0%,0%,0%);fill-opacity:0.235294;" d="M 14.574219 6.777344 C 14.351562 6.78125 14.136719 6.898438 14.015625 7.105469 L 13.683594 7.679688 C 13.578125 7.863281 13.570312 8.078125 13.644531 8.257812 C 13.65625 8.230469 13.667969 8.203125 13.683594 8.175781 L 14.015625 7.605469 C 14.136719 7.394531 14.351562 7.277344 14.574219 7.273438 C 14.691406 7.269531 14.8125 7.296875 14.917969 7.363281 L 17.785156 9.015625 C 17.917969 9.09375 18.011719 9.207031 18.066406 9.339844 C 18.191406 9.039062 18.074219 8.6875 17.785156 8.519531 L 14.917969 6.863281 C 14.8125 6.800781 14.691406 6.773438 14.574219 6.777344 Z M 11.90625 11.496094 C 11.175781 11.496094 10.585938 12.085938 10.585938 12.820312 L 10.585938 13.316406 C 10.585938 12.582031 11.175781 11.992188 11.90625 11.992188 L 19.84375 11.992188 C 20.578125 11.992188 21.167969 12.582031 21.167969 13.316406 L 21.167969 12.820312 C 21.167969 12.085938 20.578125 11.496094 19.84375 11.496094 Z M 11.90625 16.789062 C 11.175781 16.789062 10.585938 17.378906 10.585938 18.109375 L 10.585938 18.605469 C 10.585938 17.875 11.175781 17.285156 11.90625 17.285156 L 19.183594 17.285156 L 19.183594 16.789062 Z M 12.570312 21.417969 L 12.570312 21.914062 C 12.570312 22.28125 12.863281 22.578125 13.230469 22.578125 L 19.183594 22.578125 L 19.183594 22.082031 L 13.230469 22.082031 C 12.863281 22.082031 12.570312 21.785156 12.570312 21.417969 Z M 12.570312 21.417969 "/>
</g>
<mask id="mask2">
  <g filter="url(#alpha)">
<rect x="0" y="0" width="32" height="32" style="fill:rgb(0%,0%,0%);fill-opacity:0.99;stroke:none;"/>
  </g>
</mask>
<clipPath id="clip3">
  <rect x="0" y="0" width="32" height="32"/>
</clipPath>
<g id="surface11" clip-path="url(#clip3)">
<path style=" stroke:none;fill-rule:nonzero;fill:rgb(100%,100%,100%);fill-opacity:1;" d="M 13.683594 8.34375 C 13.503906 8.660156 13.609375 9.0625 13.925781 9.246094 L 16.792969 10.898438 C 17.109375 11.082031 17.511719 10.972656 17.695312 10.65625 L 18.027344 10.085938 C 18.148438 9.871094 18.140625 9.621094 18.027344 9.421875 L 17.695312 9.996094 C 17.511719 10.3125 17.109375 10.421875 16.792969 10.238281 L 13.925781 8.582031 C 13.824219 8.523438 13.742188 8.4375 13.683594 8.34375 Z M 13.230469 13.480469 C 12.863281 13.480469 12.570312 13.777344 12.570312 14.140625 L 10.585938 14.140625 L 10.585938 14.804688 L 12.570312 14.804688 C 12.570312 14.4375 12.863281 14.140625 13.230469 14.140625 L 18.523438 14.140625 C 18.890625 14.140625 19.183594 14.4375 19.183594 14.804688 L 19.183594 14.140625 C 19.183594 13.777344 18.890625 13.480469 18.523438 13.480469 Z M 13.230469 18.773438 C 12.863281 18.773438 12.570312 19.066406 12.570312 19.433594 L 12.570312 20.09375 C 12.570312 19.730469 12.863281 19.433594 13.230469 19.433594 L 19.183594 19.433594 L 19.183594 18.773438 Z M 10.585938 22.742188 L 10.585938 23.402344 C 10.585938 24.136719 11.175781 24.726562 11.90625 24.726562 L 21.167969 24.726562 L 21.167969 24.066406 L 11.90625 24.066406 C 11.175781 24.066406 10.585938 23.476562 10.585938 22.742188 Z M 10.585938 22.742188 "/>
</g>
<mask id="mask3">
  <g filter="url(#alpha)">
<rect x="0" y="0" width="32" height="32" style="fill:rgb(0%,0%,0%);fill-opacity:0.99;stroke:none;"/>
  </g>
</mask>
<clipPath id="clip4">
  <rect x="0" y="0" width="32" height="32"/>
</clipPath>
<g id="surface14" clip-path="url(#clip4)">
<path style="fill:none;stroke-width:11.338583;stroke-linecap:round;stroke-linejoin:round;stroke:rgb(12.941177%,12.941177%,12.941177%);stroke-opacity:1;stroke-miterlimit:4;" d="M 881.254473 409.803407 C 867.791191 410.039605 854.800305 417.125543 847.47817 429.644033 L 827.401346 464.365129 C 816.536241 483.497161 822.913585 508.061745 842.045617 518.92685 L 1015.414897 619.074772 C 1034.546929 630.176075 1058.875316 623.562533 1069.976619 604.430501 L 1090.053443 569.709405 C 1101.154745 550.577373 1094.541203 526.248986 1075.409171 515.147683 L 902.039891 414.999761 C 895.662547 411.220595 888.340411 409.567209 881.254473 409.803407 Z M 719.931288 695.130505 C 675.762275 695.130505 640.096388 730.796393 640.096388 775.201603 L 640.096388 855.036503 L 760.084936 855.036503 C 760.084936 833.070096 777.79978 815.119053 800.002386 815.119053 L 1120.05058 815.119053 C 1142.253185 815.119053 1159.96803 833.070096 1159.96803 855.036503 L 1159.96803 1015.178699 L 719.931288 1015.178699 C 675.762275 1015.178699 640.096388 1050.844586 640.096388 1095.013599 L 640.096388 1375.144343 C 640.096388 1419.549554 675.762275 1455.215441 719.931288 1455.215441 L 1279.956578 1455.215441 L 1279.956578 775.201603 C 1279.956578 730.796393 1244.29069 695.130505 1199.88548 695.130505 Z M 800.002386 1135.167247 L 1159.96803 1135.167247 L 1159.96803 1335.226893 L 800.002386 1335.226893 C 777.79978 1335.226893 760.084936 1317.27585 760.084936 1295.073245 L 760.084936 1175.084697 C 760.084936 1152.882092 777.79978 1135.167247 800.002386 1135.167247 Z M 800.002386 1135.167247 " transform="matrix(0.016538,0,0,0.016538,0,0)"/>
</g>
</defs>
<g id="surface1">
<path style=" stroke:none;fill-rule:nonzero;fill:url(#linear0);" d="M 5.953125 27.9375 L 25.800781 27.9375 L 25.800781 29.40625 L 5.953125 29.40625 Z M 5.953125 27.9375 "/>
<path style=" stroke:none;fill-rule:nonzero;fill:url(#radial0);" d="M 25.800781 28.035156 L 28.445312 28.035156 L 28.445312 26.710938 L 25.800781 26.710938 Z M 25.800781 28.035156 "/>
<path style=" stroke:none;fill-rule:nonzero;fill:url(#radial1);" d="M 5.953125 28.035156 L 3.308594 28.035156 L 3.308594 29.355469 L 5.953125 29.355469 Z M 5.953125 28.035156 "/>
<path style=" stroke:none;fill-rule:nonzero;fill:url(#radial2);" d="M 5.953125 28.035156 L 3.308594 28.035156 L 3.308594 26.710938 L 5.953125 26.710938 Z M 5.953125 28.035156 "/>
<path style=" stroke:none;fill-rule:nonzero;fill:url(#radial3);" d="M 25.800781 28.035156 L 28.445312 28.035156 L 28.445312 29.355469 L 25.800781 29.355469 Z M 25.800781 28.035156 "/>
<path style=" stroke:none;fill-rule:nonzero;fill:url(#linear1);" d="M 4.628906 2.894531 L 27.121094 2.894531 C 27.851562 2.894531 28.445312 3.488281 28.445312 4.21875 L 28.445312 26.710938 C 28.445312 27.441406 27.851562 28.035156 27.121094 28.035156 L 4.628906 28.035156 C 3.898438 28.035156 3.308594 27.441406 3.308594 26.710938 L 3.308594 4.21875 C 3.308594 3.488281 3.898438 2.894531 4.628906 2.894531 Z M 4.628906 2.894531 "/>
<path style=" stroke:none;fill-rule:nonzero;fill:rgb(90.196079%,90.196079%,90.196079%);fill-opacity:0.392157;" d="M 4.628906 2.894531 C 3.898438 2.894531 3.308594 3.484375 3.308594 4.21875 L 3.308594 4.382812 C 3.308594 3.652344 3.898438 3.058594 4.628906 3.0625 L 27.121094 3.0625 C 27.855469 3.058594 28.445312 3.652344 28.445312 4.382812 L 28.445312 4.21875 C 28.445312 3.484375 27.855469 2.894531 27.121094 2.894531 Z M 4.628906 2.894531 "/>
<path style=" stroke:none;fill-rule:nonzero;fill:rgb(0%,0%,0%);fill-opacity:0.196078;" d="M 4.628906 28.035156 C 3.898438 28.035156 3.308594 27.445312 3.308594 26.710938 L 3.308594 26.546875 C 3.308594 27.277344 3.898438 27.867188 4.628906 27.867188 L 27.121094 27.867188 C 27.855469 27.867188 28.445312 27.277344 28.445312 26.546875 L 28.445312 26.710938 C 28.445312 27.445312 27.855469 28.035156 27.121094 28.035156 Z M 4.628906 28.035156 "/>
<path style="fill:none;stroke-width:3;stroke-linecap:round;stroke-linejoin:miter;stroke:rgb(12.941177%,12.941177%,12.941177%);stroke-opacity:1;stroke-miterlimit:4;" d="M 74.055428 -168.691922 L 433.896065 -168.691922 C 445.582449 -168.691922 455.081542 -159.192829 455.081542 -147.506445 L 455.081542 212.334192 C 455.081542 224.020576 445.582449 233.519669 433.896065 233.519669 L 74.055428 233.519669 C 62.369044 233.519669 52.932445 224.020576 52.932445 212.334192 L 52.932445 -147.506445 C 52.932445 -159.192829 62.369044 -168.691922 74.055428 -168.691922 Z M 74.055428 -168.691922 " transform="matrix(0.062506,0,0,0.062506,0,13.438783)"/>
<path style=" stroke:none;fill-rule:nonzero;fill:url(#linear2);" d="M 6.613281 4.878906 L 25.136719 4.878906 C 25.867188 4.878906 26.460938 5.433594 26.460938 6.117188 L 26.460938 24.8125 C 26.460938 25.496094 25.867188 26.050781 25.136719 26.050781 L 6.613281 26.050781 C 5.882812 26.050781 5.292969 25.496094 5.292969 24.8125 L 5.292969 6.117188 C 5.292969 5.433594 5.882812 4.878906 6.613281 4.878906 Z M 6.613281 4.878906 "/>
<use xlink:href="#surface5" mask="url(#mask0)"/>
<use xlink:href="#surface8" mask="url(#mask1)"/>
<use xlink:href="#surface11" mask="url(#mask2)"/>
<use xlink:href="#surface14" mask="url(#mask3)"/>
</g>
</svg>

<svg xmlns="http://www.w3.org/2000/svg" width="32pt" height="32pt" viewBox="0 0 32 32"><defs><linearGradient id="a" gradientUnits="userSpaceOnUse" x1="254" y1="233.5" x2="254" y2="254.667" gradientTransform="matrix(.0625 0 0 .0625 0 13.439)"><stop offset="0" stop-opacity=".275"/><stop offset="1" stop-opacity="0"/></linearGradient><radialGradient id="b" gradientUnits="userSpaceOnUse" cx="450.909" cy="189.579" fx="450.909" fy="189.579" r="21.167" gradientTransform="matrix(0 -.07813 -.14064 0 52.13 63.595)"><stop offset="0" stop-opacity=".314"/><stop offset=".222" stop-opacity=".275"/><stop offset="1" stop-opacity="0"/></radialGradient><radialGradient id="c" gradientUnits="userSpaceOnUse" cx="450.909" cy="189.579" fx="450.909" fy="189.579" r="21.167" gradientTransform="matrix(0 .07813 .14064 0 -20.378 -7.527)"><stop offset="0" stop-opacity=".314"/><stop offset=".222" stop-opacity=".275"/><stop offset="1" stop-opacity="0"/></radialGradient><radialGradient id="d" gradientUnits="userSpaceOnUse" cx="450.909" cy="189.579" fx="450.909" fy="189.579" r="21.167" gradientTransform="matrix(0 -.07813 .14064 0 -20.378 63.595)"><stop offset="0" stop-opacity=".314"/><stop offset=".222" stop-opacity=".275"/><stop offset="1" stop-opacity="0"/></radialGradient><radialGradient id="e" gradientUnits="userSpaceOnUse" cx="450.909" cy="189.579" fx="450.909" fy="189.579" r="21.167" gradientTransform="matrix(0 .07813 -.14064 0 52.13 -7.527)"><stop offset="0" stop-opacity=".314"/><stop offset=".222" stop-opacity=".275"/><stop offset="1" stop-opacity="0"/></radialGradient><linearGradient id="f" gradientUnits="userSpaceOnUse" x1="285.75" y1="233.5" x2="285.75" y2="-168.667" gradientTransform="matrix(.0625 0 0 .0625 0 13.439)"><stop offset="0" stop-color="#bdbdbd"/><stop offset="1" stop-color="#e0e0e0"/></linearGradient><linearGradient id="g" gradientUnits="userSpaceOnUse" x1="254" y1="-147.5" x2="254" y2="212.333" gradientTransform="matrix(.0625 0 0 .0625 0 13.439)"><stop offset="0" stop-color="#eee"/><stop offset="1" stop-color="#f5f5f5"/></linearGradient><linearGradient id="h" gradientUnits="userSpaceOnUse" x1="349.25" y1="-115.75" x2="349.25" y2="191.167"><stop offset="0" stop-color="#424242"/><stop offset="1" stop-color="#616161"/></linearGradient><linearGradient id="i" gradientUnits="userSpaceOnUse" x1="291.042" y1="-115.75" x2="296.333" y2="191.167"><stop offset="0" stop-color="#424242"/><stop offset="1" stop-color="#616161"/></linearGradient></defs><path d="M5.953 27.938h19.848v1.468H5.953zm0 0" fill="url(#a)"/><path d="M25.8 28.035h2.645v-1.324h-2.644zm0 0" fill="url(#b)"/><path d="M5.953 28.035H3.31v1.32h2.644zm0 0" fill="url(#c)"/><path d="M5.953 28.035H3.31v-1.324h2.644zm0 0" fill="url(#d)"/><path d="M25.8 28.035h2.645v1.32h-2.644zm0 0" fill="url(#e)"/><path d="M4.629 2.895H27.12c.73 0 1.324.593 1.324 1.324V26.71c0 .73-.593 1.324-1.324 1.324H4.63c-.73 0-1.32-.594-1.32-1.324V4.219c0-.73.59-1.324 1.32-1.324zm0 0" fill="url(#f)"/><path d="M4.629 2.895c-.73 0-1.32.59-1.32 1.324v.164c0-.73.59-1.324 1.32-1.32H27.12a1.317 1.317 0 0 1 1.324 1.32v-.164a1.32 1.32 0 0 0-1.324-1.324zm0 0" fill="#e6e6e6" fill-opacity=".392"/><path d="M4.629 28.035c-.73 0-1.32-.59-1.32-1.324v-.164c0 .73.59 1.32 1.32 1.32H27.12a1.32 1.32 0 0 0 1.324-1.32v.164a1.32 1.32 0 0 1-1.324 1.324zm0 0" fill-opacity=".196"/><path d="M4.629 2.895H27.12c.73 0 1.324.593 1.324 1.324V26.71c0 .73-.593 1.324-1.324 1.324H4.63c-.73 0-1.32-.594-1.32-1.324V4.219c0-.73.59-1.324 1.32-1.324zm0 0" fill="none" stroke-width=".18752999999999997" stroke-linecap="round" stroke="#212121"/><path d="M5.953 4.219h19.848c.73 0 1.32.554 1.32 1.238v20.016c0 .683-.59 1.238-1.32 1.238H5.953c-.73 0-1.324-.555-1.324-1.238V5.457c0-.684.594-1.238 1.324-1.238zm0 0" fill="url(#g)"/><path d="M317.47-20.519c-28.185 0-53.12 10.312-68.494 26.123-16.123 21.498 5 37.371 39.871 21.81 7.562-3.5 17.561-5.562 28.623-5.562 23.497 0 42.37 9.437 42.37 21.123v29.623c-12.436-5.375-26.872-8.437-42.37-8.437-46.87 0-84.617 28.31-84.617 63.494 0 4 0 5.312 1.125 10.624 6.687 30.06 41.433 52.87 83.492 52.87 15.498 0 29.934-3.062 42.37-8.437v8.437h42.31V42.975c0-35.184-37.747-63.494-84.68-63.494zm0 126.988c23.497 0 42.37 9.5 42.37 21.186 0 11.749-18.873 21.185-42.37 21.185-23.436 0-42.309-9.436-42.309-21.185 0-11.687 18.873-21.186 42.309-21.186zm0 0" transform="matrix(.0625 0 0 .0625 0 13.439)" fill="url(#h)" stroke-width="3" stroke="#212121"/><path d="M269.85-105.135l31.746 58.181c5.312 10.562 47.683 10.562 42.371-5.312l-21.185-52.87c-10.562-21.185-63.494-15.935-52.933 0zm0 0" transform="matrix(.0625 0 0 .0625 0 13.439)" fill-rule="evenodd" fill="url(#i)" stroke-width="3" stroke="#212121"/></svg>
